X: 1
T: The Moon and Seven Stars
Z: Transcribed to abc by Mary Lou Knack
R: jig
M: 6/8
K: D
A |\
"D"d2A AGF | "G"GAB "D"A2A | "G"Bcd efg | "A7"fed cBA |\
"D"d2A AGF | "G"GAB "D"A2A | "G"Bcd efg | "A7"Adc "D"d2 :|
|: d |\
"A"e2A ABA | "A7"efg "D"f3 | "A"efg "D"fed | "E7"cdB "A"A2A |\
"G"BGB "D"A2{F}A | "G"BGB "D"A2{F}A | "G"Bcd efg | "A7"Adc "D"d2 :|


